icons/desktop/16/svg/bookmark-fill-16.svg

<svg width="16" height="16" viewBox="0 0 16 16" fill="none" xmlns="http://www.w3.org/2000/svg">
<path d="M3.47501 9.824L0.61501 7.449C0.427505 7.29426 0.291098 7.0865 0.223651 6.85294C0.156204 6.61937 0.16086 6.37088 0.23701 6.14C0.311094 5.90884 0.453267 5.70544 0.644906 5.55644C0.836546 5.40745 1.06872 5.31981 1.31101 5.305L5.00801 5.066L5.50901 4.691L6.87301 1.264C7.05901 0.8 7.50101 0.5 8.00001 0.5C8.49901 0.5 8.94101 0.8 9.12701 1.263V1.264L10.491 4.691L10.992 5.066L14.689 5.305C15.187 5.337 15.609 5.665 15.763 6.14C15.918 6.616 15.769 7.13 15.385 7.449L12.53 9.82L12.35 10.412L13.26 13.987C13.383 14.472 13.201 14.973 12.797 15.266C12.6008 15.4086 12.3663 15.4891 12.1239 15.4972C11.8815 15.5052 11.6422 15.4403 11.437 15.311L8.31001 13.334H7.68901L4.56301 15.311C4.13701 15.577 3.60301 15.558 3.20201 15.266C3.00501 15.1242 2.8554 14.9263 2.77279 14.6981C2.69018 14.4699 2.6784 14.222 2.73901 13.987L3.64701 10.421L3.47501 9.824Z" fill="black"/>
</svg>

<!-- This Source Code Form is subject to the terms of the Mozilla Public
   - License, v. 2.0. If a copy of the MPL was not distributed with this
   - file, You can obtain one at http://mozilla.org/MPL/2.0/. -->
<svg xmlns="http://www.w3.org/2000/svg" width="16" height="16" fill="context-fill" fill-opacity="context-fill-opacity" viewBox="0 0 16 16">
    <path d="M3.475 9.824.615 7.449A1.21 1.21 0 0 1 .237 6.14a1.205 1.205 0 0 1 1.074-.835l3.697-.239.501-.375 1.364-3.427A1.21 1.21 0 0 1 8 .5c.499 0 .941.3 1.127.763v.001l1.364 3.427.501.375 3.697.239c.498.032.92.36 1.074.835.155.476.006.99-.378 1.309L12.53 9.82l-.18.592.91 3.575a1.214 1.214 0 0 1-1.823 1.324L8.31 13.334h-.621l-3.126 1.977c-.426.266-.96.247-1.361-.045a1.205 1.205 0 0 1-.463-1.279l.908-3.566z" />
</svg>
